svg/messages-alt-f.svg

<svg xmlns="http://www.w3.org/2000/svg" viewBox="0 0 64 63" enable-background="new 0 0 64 63"><style type="text/css">.st0{fill:#333333;}</style><title>messages-alt-f</title><desc>Created with Sketch.</desc><path class="st0" d="M37 16h-26c-6.1 0-11 4.9-11 11v14c0 6 4.9 11 9 11l-1.1 9c-.2 1.6.7 2.2 2.1 1.2l13.8-10.2h13.2c6.1 0 11-4.9 11-11v-14c0-6.1-4.9-11-11-11zM53 0h-26c-6.1 0-11 4.9-11 11v3h23c6.1 0 11 4.9 11 11v18.2l4.1 3c1.3 1 2.3.5 2.1-1.2l-1.2-9c4.1 0 9-4.9 9-11v-14c0-6.1-4.9-11-11-11z"/></svg>

<?xml version="1.0" encoding="utf-8"?>
<!-- Generator: Adobe Illustrator 21.0.0, SVG Export Plug-In . SVG Version: 6.00 Build 0)  -->
<svg version="1.1" id="Layer_1" xmlns="http://www.w3.org/2000/svg" xmlns:xlink="http://www.w3.org/1999/xlink" x="0px" y="0px"
	 viewBox="0 0 64 63" style="enable-background:new 0 0 64 63;" xml:space="preserve">
<style type="text/css">
	.st0{fill:#333333;}
</style>
<title>messages-alt-f</title>
<desc>Created with Sketch.</desc>
<g>
	<path class="st0" d="M37,16H11C4.9,16,0,20.9,0,27v14C0,47,4.9,52,9,52L7.9,61c-0.2,1.6,0.7,2.2,2.1,1.2L23.8,52H37
		c6.1,0,11-4.9,11-11V27C48,20.9,43.1,16,37,16z"/>
	<path class="st0" d="M53,0H27c-6.1,0-11,4.9-11,11v3h23c6.1,0,11,4.9,11,11v18.2l4.1,3c1.3,1,2.3,0.5,2.1-1.2L55,36
		c4.1,0,9-4.9,9-11V11C64,4.9,59.1,0,53,0z"/>
</g>
</svg>
